X:1
T:Christmas Time's a-Comin'
T:Christmas Time's a-Comin'
T:Tex Logan
T:Tex Logan
C:Tex Logan
Z:All Rights Reserved
L:1/8
M:4/4
K:G
V:1 treble 
%%MIDI program 40
V:1
"G" BBG>A B d3 |"D7" AAF>G A c3 |"G" BBG>A B d2 d/d/ |"D7" fdcA"G" G4 |"G" BBG>A B d3 | %5
"D7" AAF>G A c3 |"G" BBG>A B d2 d/d/ |"D7" fdcA"G" G3 B/c/ |"G" dgg>g ggdd |"C" e2 c>d eedc | %10
"G" Bdd>d ddcB | z"D7" c BA GF |"^G" G8 |] %13

